src/assets/img/icon-milan.svg

<?xml version="1.0" encoding="UTF-8"?>
<svg width="64px" height="64px" viewBox="0 0 64 64" version="1.1" xmlns="http://www.w3.org/2000/svg" xmlns:xlink="http://www.w3.org/1999/xlink">
    <!-- Generator: Sketch 47.1 (45422) - http://www.bohemiancoding.com/sketch -->
    <title>icon-milan</title>
    <desc>Created with Sketch.</desc>
    <defs></defs>
    <g id="Page-1" stroke="none" stroke-width="1" fill="none" fill-rule="evenodd">
        <g id="icon-milan" fill-rule="nonzero" fill="#000000">
            <path d="M63.963871,12.1156129 L60.8670968,0.760774194 C60.7442581,0.311741935 60.3365161,0 59.8709677,0 C59.4054194,0 58.9976774,0.311741935 58.8748387,0.760774194 L55.7780645,12.1156129 C55.7543226,12.2043871 55.7419355,12.2952258 55.7419355,12.3870968 L55.7419355,13.4193548 L55.7419355,19.4735484 L51.6129032,16.0330323 L51.6129032,13.4193548 L49.5483871,13.4193548 L49.5483871,16.0330323 L45.4193548,19.4735484 L45.4193548,13.4193548 L45.4193548,12.3870968 C45.4193548,12.2952258 45.4069677,12.2043871 45.3832258,12.1156129 L42.2864516,0.760774194 C42.1636129,0.311741935 41.755871,0 41.2903226,0 C40.8247742,0 40.4170323,0.311741935 40.2941935,0.760774194 L37.7527742,10.0789677 L32,2.40825806 L26.2472258,10.0779355 L23.7058065,0.759741935 C23.5829677,0.311741935 23.1752258,0 22.7096774,0 C22.244129,0 21.8363871,0.311741935 21.7135484,0.760774194 L18.6167742,12.1156129 C18.5930323,12.2043871 18.5806452,12.2952258 18.5806452,12.3870968 L18.5806452,13.4193548 L18.5806452,19.4735484 L14.4516129,16.0330323 L14.4516129,13.4193548 L12.3870968,13.4193548 L12.3870968,16.0330323 L8.25806452,19.4735484 L8.25806452,13.4193548 L8.25806452,12.3870968 C8.25806452,12.2952258 8.24567742,12.2043871 8.22193548,12.1156129 L5.12516129,0.760774194 C5.00232258,0.311741935 4.59458065,0 4.12903226,0 C3.66348387,0 3.25574194,0.311741935 3.13290323,0.760774194 L0.0361290323,12.1156129 C0.0123870968,12.2043871 0,12.2952258 0,12.3870968 L0,13.4193548 L0,64 L7.22580645,64 L8.25806452,64 L18.5806452,64 L19.6129032,64 L24.7741935,64 L26.8387097,64 L37.1612903,64 L39.2258065,64 L44.3870968,64 L45.4193548,64 L55.7419355,64 L56.7741935,64 L64,64 L64,13.4193548 L64,12.3870968 C64,12.2952258 63.9876129,12.2043871 63.963871,12.1156129 Z M59.8709677,4.95587097 L61.8983226,12.3870968 L57.8446452,12.3870968 L59.8709677,4.95587097 Z M50.5806452,17.860129 L55.7419355,22.1605161 L55.7419355,26.8387097 L45.4193548,26.8387097 L45.4193548,22.1605161 L50.5806452,17.860129 Z M37.1612903,40.3385806 L32,30.875871 L26.8387097,40.3385806 L26.8387097,18.5806452 L37.1612903,18.5806452 L37.1612903,40.3385806 Z M37.1612903,16.516129 L26.8387097,16.516129 L26.8387097,14.4516129 L37.1612903,14.4516129 L37.1612903,16.516129 Z M24.7741935,18.5806452 L24.7741935,47.483871 L20.6451613,47.483871 L20.6451613,14.4516129 L24.7741935,14.4516129 L24.7741935,18.5806452 Z M32,35.1876129 L35.1700645,41.0002581 C34.212129,40.5295484 33.1385806,40.2580645 32,40.2580645 C30.8614194,40.2580645 29.787871,40.5295484 28.8299355,41.0002581 L32,35.1876129 Z M39.2258065,18.5806452 L39.2258065,14.4516129 L43.3548387,14.4516129 L43.3548387,47.483871 L39.2258065,47.483871 L39.2258065,18.5806452 Z M41.2903226,4.95587097 L43.3176774,12.3870968 L39.264,12.3870968 L41.2903226,4.95587097 Z M36.9032258,12.3870968 L27.0967742,12.3870968 L32,5.84980645 L36.9032258,12.3870968 Z M22.7096774,4.95587097 L24.7370323,12.3870968 L20.6833548,12.3870968 L22.7096774,4.95587097 Z M13.4193548,17.860129 L18.5806452,22.1605161 L18.5806452,26.8387097 L8.25806452,26.8387097 L8.25806452,22.1605161 L13.4193548,17.860129 Z M4.12903226,4.95587097 L6.1563871,12.3870968 L2.10167742,12.3870968 L4.12903226,4.95587097 Z M6.19354839,61.9354839 L2.06451613,61.9354839 L2.06451613,14.4516129 L6.19354839,14.4516129 L6.19354839,30.9677419 L8.25806452,30.9677419 L8.25806452,28.9032258 L18.5806452,28.9032258 L18.5806452,40.3385806 L13.4193548,30.875871 L8.25806452,40.3385806 L8.25806452,33.0322581 L6.19354839,33.0322581 L6.19354839,47.483871 L6.19354839,51.6129032 L6.19354839,61.9354839 Z M16.5894194,41.0002581 C15.6314839,40.5295484 14.5579355,40.2580645 13.4193548,40.2580645 C12.2807742,40.2580645 11.2072258,40.5295484 10.2492903,41.0002581 L13.4193548,35.1876129 L16.5894194,41.0002581 Z M8.25806452,61.9354839 L8.25806452,51.6129032 L8.25806452,47.483871 C8.25806452,44.6379355 10.5734194,42.3225806 13.4193548,42.3225806 C16.2652903,42.3225806 18.5806452,44.6379355 18.5806452,47.483871 L18.5806452,51.6129032 L18.5806452,61.9354839 L8.25806452,61.9354839 Z M24.7741935,61.9354839 L20.6451613,61.9354839 L20.6451613,51.6129032 L20.6451613,49.5483871 L24.7741935,49.5483871 L24.7741935,51.6129032 L24.7741935,61.9354839 Z M37.1612903,61.9354839 L26.8387097,61.9354839 L26.8387097,51.6129032 L26.8387097,47.483871 C26.8387097,44.6379355 29.1540645,42.3225806 32,42.3225806 C34.8459355,42.3225806 37.1612903,44.6379355 37.1612903,47.483871 L37.1612903,51.6129032 L37.1612903,61.9354839 Z M43.3548387,61.9354839 L39.2258065,61.9354839 L39.2258065,51.6129032 L39.2258065,49.5483871 L43.3548387,49.5483871 L43.3548387,51.6129032 L43.3548387,61.9354839 Z M45.4193548,61.9354839 L45.4193548,51.6129032 L45.4193548,47.483871 C45.4193548,44.6379355 47.7347097,42.3225806 50.5806452,42.3225806 C53.4265806,42.3225806 55.7419355,44.6379355 55.7419355,47.483871 L55.7419355,51.6129032 L55.7419355,61.9354839 L45.4193548,61.9354839 Z M47.4105806,41.0002581 L50.5806452,35.1876129 L53.7507097,41.0002581 C52.7927742,40.5295484 51.7192258,40.2580645 50.5806452,40.2580645 C49.4420645,40.2580645 48.3685161,40.5295484 47.4105806,41.0002581 Z M61.9354839,61.9354839 L57.8064516,61.9354839 L57.8064516,51.6129032 L57.8064516,47.483871 L57.8064516,37.1612903 L55.7419355,37.1612903 L55.7419355,40.3385806 L50.5806452,30.875871 L45.4193548,40.3385806 L45.4193548,28.9032258 L55.7419355,28.9032258 L55.7419355,35.0967742 L57.8064516,35.0967742 L57.8064516,14.4516129 L61.9354839,14.4516129 L61.9354839,61.9354839 Z" id="Shape"></path>
        </g>
    </g>
</svg>

<svg id="icon-milan" width="64" height="64" xmlns="http://www.w3.org/2000/svg">
  <path d="M63.964 12.116L60.867.76c-.123-.448-.53-.76-.996-.76-.46 0-.87.312-.99.76l-3.1 11.356c-.023.088-.035.18-.035.27v7.087l-4.13-3.44v-2.615H49.55v2.613l-4.13 3.44v-7.08c0-.092-.01-.183-.035-.27L42.285.76c-.12-.448-.53-.76-.995-.76-.465 0-.873.312-.996.76l-2.54 9.32L32 2.407l-5.753 7.67L23.707.76C23.582.312 23.174 0 22.71 0c-.466 0-.874.312-.996.76l-3.097 11.356c-.024.088-.036.18-.036.27v7.087l-4.122-3.44v-2.615H12.39v2.613l-4.13 3.44v-7.08c0-.092-.01-.183-.036-.27L5.124.76C5.004.313 4.594 0 4.13 0c-.467 0-.874.312-.997.76L.036 12.117c-.024.088-.036.18-.036.27V64h64V12.387c0-.092-.012-.183-.036-.27zm-4.093-7.16l2.03 7.43h-4.05l2.028-7.43zM50.58 17.86l5.162 4.3v4.68H45.42v-4.68l5.16-4.3zM37.16 40.34L32 30.875l-5.16 9.463V18.58h10.32v21.76zm0-23.824H26.84v-2.064h10.32v2.064zM24.775 18.58v28.904h-4.13V14.452h4.13v4.13zM32 35.19L35.17 41c-.958-.47-2.03-.742-3.17-.742-1.14 0-2.212.272-3.17.742L32 35.188zm7.226-16.607v-4.128h4.13v33.032h-4.13V18.58zM41.29 4.957l2.028 7.43h-4.054l2.026-7.43zm-4.387 7.43h-9.806L32 5.85l4.903 6.537zM22.71 4.957l2.027 7.43h-4.054l2.027-7.43zM13.42 17.86l5.16 4.3v4.68H8.26v-4.68l5.16-4.3zM4.13 4.956l2.026 7.43H2.102l2.027-7.43zm2.064 56.98h-4.13V14.45h4.13v16.516h2.064V28.9H18.58v11.44l-5.16-9.464-5.162 9.463v-7.31H6.194v28.9zM16.59 41c-.96-.47-2.032-.742-3.17-.742-1.14 0-2.213.272-3.17.742l3.17-5.812L16.59 41zM8.257 61.935V47.483c0-2.845 2.315-5.16 5.16-5.16 2.847 0 5.163 2.315 5.163 5.16v14.453H8.26zm16.516 0h-4.13V49.548h4.13v12.387zm12.387 0H26.84V47.483c0-2.845 2.314-5.16 5.16-5.16s5.16 2.315 5.16 5.16v14.453zm6.195 0h-4.13V49.548h4.13v12.387zm2.064 0V47.483c0-2.845 2.31-5.16 5.16-5.16s5.16 2.315 5.16 5.16v14.453H45.42zM47.41 41l3.17-5.812L53.75 41c-.957-.47-2.03-.742-3.17-.742-1.138 0-2.21.272-3.17.742zm14.525 20.935h-4.13V37.16h-2.063v3.18l-5.16-9.464-5.163 9.463V28.9h10.32v6.194h2.06V14.452h4.13v47.483z"/>
</svg>
